assets/uem.svg

<svg width="84" height="90" viewBox="0 0 84 90" fill="none" xmlns="http://www.w3.org/2000/svg" xmlns:xlink="http://www.w3.org/1999/xlink">
<g clip-path="url(#clip0_305_70)">
<path d="M58.8477 79.3209L51.1177 75.0224L57.1001 64.3433H62.0742L64.6957 68.9105L58.8477 79.3209Z" fill="#FF61C6" stroke="#FF61C6" stroke-width="0.127915"/>
<path d="M64.0911 53.194H39.4893L51.2524 32.2388L64.0911 53.194Z" fill="#FF61C6" stroke="#FF61C6" stroke-width="0.127915"/>
<path d="M3.7399 55.1048L3.75798 55.1386H3.79626H36.1953H36.2327L36.251 55.1061L51.3079 28.4419L51.3262 28.4094L51.307 28.3774L46.9378 21.1237L46.8811 21.0296L46.8273 21.1253L31.9904 47.4883H-0.236816H-0.343677L-0.293184 47.5825L3.7399 55.1048Z" fill="#FF61C6" stroke="#FF61C6" stroke-width="0.127915"/>
<path d="M63.0826 62.5299H32.2295L36.397 55.209H67.4517L84.1218 82.5448L79.6854 90L63.0826 62.5299Z" fill="#FF61C6" stroke="#FF61C6" stroke-width="0.127915"/>
<path d="M75.9214 0H67.1159L51.2524 28.4104L67.5192 55.1418H76.1231L59.9236 28.209L75.9214 0Z" fill="#FF61C6" stroke="#FF61C6" stroke-width="0.127915"/>
<path d="M64.5613 32.4403C64.4 32.4403 62.836 29.5746 62.0742 28.1418L64.5613 23.6418H76.7277V32.4403H64.5613Z" fill="#FF61C6" stroke="#FF61C6" stroke-width="0.127915"/>
<path d="M25.7767 45.7388L19.9287 35.2612L27.5243 30.9627L33.5067 41.4403L30.8852 45.7388H25.7767Z" fill="#FF61C6" stroke="#FF61C6" stroke-width="0.127915"/>
<g style="mix-blend-mode:darken">
<rect x="-770" y="-19" width="1440" height="128" fill="url(#pattern0)"/>
</g>
</g>
<defs>
<pattern id="pattern0" patternContentUnits="objectBoundingBox" width="0.00208333" height="0.0234375">
<use xlink:href="#image0_305_70" transform="scale(4.16667e-05 0.00046875)"/>
</pattern>
<clipPath id="clip0_305_70">
<rect width="84" height="90" fill="white"/>
</clipPath>
<image id="image0_305_70" width="50" height="50" xlink:href="data:image/png;base64,iVBORw0KGgoAAAANSUhEUgAAADIAAAAyCAYAAAAeP4ixAAAABHNCSVQICAgIfAhkiAAAAg1JREFUaEPdmjtOw0AQhu3QRWlTu06FRMsdKGigp+cGXINLcAbKtClACi200FBRICSYz/JatlnbydrZeGakURxnH//n3exj1mmSJL/iY9iLFLIW34hz/Sb+If5VFD6Xz6V4Jr4SPxM/L66LJMM+AAn1J8l7J346QAJ5KYOyQnXkjRGS+VHyXQ8Q35aVMik7RNNemZ6lkps2FSPepw7q2gdo58T3UjD9O5ZRF3XuCtOb8F0Ku42l3lMPdaOhD6gzwVYKuPIUHvsWGtDSBdP6IxkvYyvuqA8tXTBeEJpyCi3R5EJTWzfzghzzP9EU3/yONl8X+3eTkWLq5hvNaiCM3TGH2NAHhsbmPFMDiTHZhYpv5kNrtYuVX1gaaLPqcqYEOcTa6dAPBs2uVfILVp5aLV81zwr1D1opRHepnRYZsp849jNAOwz5tK/dtnQttqfabQ0Ie2zttjkRgoX4q3KSBSCp+KdykBSQH/Fv5SAwJG4u0cwyswCRNwAgRAC12xwQwpjabQmIho1U34POACGgrN1WgBAV1245g4lFIyAmlvFuHrlQ3LdK7Sa2uq5rAWMi+ACImXAQMCYCdICYCZkCYyKIDQhu4lgBEDMHPcCYOHpzXQyYKRzBDToMdTAmjqcdjBvNMmmhWEZdviO2qqbqde3Upy2Ru2/iFY4qpPqXapotNpnXnAiXIm4MO+qLZ38bltSbrt1m9AAAAABJRU5ErkJggg=="/>
</defs>
</svg>

<svg xmlns="http://www.w3.org/2000/svg" xmlns:xlink="http://www.w3.org/1999/xlink" width="84" height="90" fill="none"><g clip-path="url(#a)"><path fill="#FF61C6" stroke="#FF61C6" stroke-width=".128" d="m58.848 79.32-7.73-4.298L57.1 64.343h4.974l2.622 4.567-5.848 10.41ZM64.091 53.194H39.49l11.763-20.955 12.84 20.955ZM3.74 55.105l.018.034H36.233l.018-.033 15.057-26.664.018-.033-.019-.032-4.37-7.253-.056-.094-.054.095L31.99 47.488H-.344l.05.095 4.034 7.522Z"/><path fill="#FF61C6" stroke="#FF61C6" stroke-width=".128" d="M63.083 62.53H32.23l4.167-7.321h31.055l16.67 27.336L79.685 90 63.083 62.53ZM75.921 0h-8.805L51.252 28.41 67.52 55.142h8.604l-16.2-26.933L75.922 0Z"/><path fill="#FF61C6" stroke="#FF61C6" stroke-width=".128" d="M64.561 32.44c-.161 0-1.725-2.865-2.487-4.298l2.487-4.5h12.167v8.798H64.56ZM25.777 45.739 19.929 35.26l7.595-4.298 5.983 10.477-2.622 4.299h-5.108Z"/><path fill="url(#b)" d="M-770-19H670v128H-770z" style="mix-blend-mode:darken"/></g><defs><clipPath id="a"><path fill="#fff" d="M0 0h84v90H0z"/></clipPath><pattern id="b" width=".002" height=".023" patternContentUnits="objectBoundingBox"><use xlink:href="#c" transform="scale(.00004 .00047)"/></pattern><image xlink:href="data:image/png;base64,iVBORw0KGgoAAAANSUhEUgAAADIAAAAyCAYAAAAeP4ixAAAABHNCSVQICAgIfAhkiAAAAg1JREFUaEPdmjtOw0AQhu3QRWlTu06FRMsdKGigp+cGXINLcAbKtClACi200FBRICSYz/JatlnbydrZeGakURxnH//n3exj1mmSJL/iY9iLFLIW34hz/Sb+If5VFD6Xz6V4Jr4SPxM/L66LJMM+AAn1J8l7J346QAJ5KYOyQnXkjRGS+VHyXQ8Q35aVMik7RNNemZ6lkps2FSPepw7q2gdo58T3UjD9O5ZRF3XuCtOb8F0Ku42l3lMPdaOhD6gzwVYKuPIUHvsWGtDSBdP6IxkvYyvuqA8tXTBeEJpyCi3R5EJTWzfzghzzP9EU3/yONl8X+3eTkWLq5hvNaiCM3TGH2NAHhsbmPFMDiTHZhYpv5kNrtYuVX1gaaLPqcqYEOcTa6dAPBs2uVfILVp5aLV81zwr1D1opRHepnRYZsp849jNAOwz5tK/dtnQttqfabQ0Ie2zttjkRgoX4q3KSBSCp+KdykBSQH/Fv5SAwJG4u0cwyswCRNwAgRAC12xwQwpjabQmIho1U34POACGgrN1WgBAV1245g4lFIyAmlvFuHrlQ3LdK7Sa2uq5rAWMi+ACImXAQMCYCdICYCZkCYyKIDQhu4lgBEDMHPcCYOHpzXQyYKRzBDToMdTAmjqcdjBvNMmmhWEZdviO2qqbqde3Upy2Ru2/iFY4qpPqXapotNpnXnAiXIm4MO+qLZ38bltSbrt1m9AAAAABJRU5ErkJggg==" id="c" width="50" height="50"/></defs></svg>
